X: 1457
T: Mudgee Schottische
C:Fred Holland
B: australian traditional tunes wiki
B: kameruka bush dance
M:4/4
L:1/8
R: Schottische
Q: 1/4=100
K:G
V:1 
G>A|"G"B2 B2 "C"c>B c>e |"G"d2 G2 "Em"G2 G>A|"G"B2 B2 "C"c>B c2|"G"d>e d>B "D"A2 G>A|
"G"B2 B2 "C"c>B c>e|"G"d2 G2 "Em"G2 G>A|"G" B2 B>G "D"A2 BA|"G"G2 g2 g2 z2||
"G"g2 G2 "C"e2 G2|e>d e>d "G"B2 G>B|d>e d>B "D"A3B|(3cec B>A "G"G2 z2|
g2 G2 "C"e2 G2|e>d e>d "G"B2 G>B |d>e d>B "D7"(3cdc B>A|"G"G2 G2 G2 ||
% abcbook-tune_id 6342d53a73f58107b58ba01b


% abcbook-boost 0
% abcbook-tablature 
% abcbook-transpose 
% abcbook-lastupdated 1665406452750
% abcbook-soundfonts 
% abcbook-repeats 3
% NFF Book 2006

